icons/Container_filled.svg

<svg width="24" height="24" viewBox="0 0 24 24" fill="none" xmlns="http://www.w3.org/2000/svg">
<path fill-rule="evenodd" clip-rule="evenodd" d="M12,2.00002c0.4142,0 0.75,0.33578 0.75,0.75c0,0.32878 0.1858,0.62935 0.4798,0.77639l0.1056,0.05278c0.8713,0.43566 1.4146,1.33495 1.4146,2.29934c0,0.77602 -0.3411,1.48224 -0.8846,1.96565l5.3117,2.65582h1.0729c0.9665,0 1.75,0.7835 1.75,1.75v8c0,0.9665 -0.7835,1.75 -1.75,1.75h-16.5c-0.9665,0 -1.75,-0.7835 -1.75,-1.75v-8c0,-0.9665 0.7835,-1.75 1.75,-1.75h0.82844l5.59006,-2.69862c-0.56368,-0.50359 -0.9185,-1.23604 -0.9185,-2.05136c0,-0.41422 0.33579,-0.75 0.75,-0.75c0.4142,0 0.75,0.33578 0.75,0.75c0,0.69035 0.5596,1.25 1.25,1.25h0.1459c0.6007,0 1.1041,-0.50258 1.1041,-1.12149c0,-0.40602 -0.231,-0.78048 -0.5854,-0.95769l-0.1056,-0.05279c-0.8022,-0.40113 -1.309,-1.22109 -1.309,-2.11803c0,-0.41422 0.3358,-0.75 0.75,-0.75zM12.1041,8.64057c-0.0693,-0.03464 -0.1508,-0.03521 -0.2205,-0.00153l-3.8549,1.86096h7.7942zM11.25,14.25v4c0,0.4142 0.3358,0.75 0.75,0.75c0.4142,0 0.75,-0.3358 0.75,-0.75v-4c0,-0.4142 -0.3358,-0.75 -0.75,-0.75c-0.4142,0 -0.75,0.3358 -0.75,0.75zM8,14.25c0,-0.4142 -0.33579,-0.75 -0.75,-0.75c-0.41421,0 -0.75,0.3358 -0.75,0.75v4c0,0.4142 0.33579,0.75 0.75,0.75c0.41421,0 0.75,-0.3358 0.75,-0.75zM16,14.25v4c0,0.4142 0.3358,0.75 0.75,0.75c0.4142,0 0.75,-0.3358 0.75,-0.75v-4c0,-0.4142 -0.3358,-0.75 -0.75,-0.75c-0.4142,0 -0.75,0.3358 -0.75,0.75z" fill="#002B51"/>
</svg>

<svg width="24" height="24" viewBox="0 0 24 24" fill="none" xmlns="http://www.w3.org/2000/svg">
<path fill-rule="evenodd" clip-rule="evenodd" d="M12 2.00002C12.4142 2.00002 12.75 2.3358 12.75 2.75002C12.75 3.0788 12.9358 3.37937 13.2298 3.52641L13.3354 3.57919C14.2067 4.01485 14.75 4.91414 14.75 5.87853C14.75 6.65455 14.4089 7.36077 13.8654 7.84418L19.1771 10.5H20.25C21.2165 10.5 22 11.2835 22 12.25V20.25C22 21.2165 21.2165 22 20.25 22H3.75C2.7835 22 2 21.2165 2 20.25V12.25C2 11.2835 2.7835 10.5 3.75 10.5H4.57844L10.1685 7.80138C9.60482 7.29779 9.25 6.56534 9.25 5.75002C9.25 5.3358 9.58579 5.00002 10 5.00002C10.4142 5.00002 10.75 5.3358 10.75 5.75002C10.75 6.44037 11.3096 7.00002 12 7.00002H12.1459C12.7466 7.00002 13.25 6.49744 13.25 5.87853C13.25 5.47251 13.019 5.09805 12.6646 4.92084L12.559 4.86805C11.7568 4.46692 11.25 3.64696 11.25 2.75002C11.25 2.3358 11.5858 2.00002 12 2.00002ZM12.1041 8.64057C12.0348 8.60593 11.9533 8.60536 11.8836 8.63904L8.0287 10.5H15.8229L12.1041 8.64057ZM12 13.5C12.4142 13.5 12.75 13.8358 12.75 14.25V18.25C12.75 18.6642 12.4142 19 12 19C11.5858 19 11.25 18.6642 11.25 18.25V14.25C11.25 13.8358 11.5858 13.5 12 13.5ZM8 14.25C8 13.8358 7.66421 13.5 7.25 13.5C6.83579 13.5 6.5 13.8358 6.5 14.25V18.25C6.5 18.6642 6.83579 19 7.25 19C7.66421 19 8 18.6642 8 18.25V14.25ZM16.75 13.5C17.1642 13.5 17.5 13.8358 17.5 14.25V18.25C17.5 18.6642 17.1642 19 16.75 19C16.3358 19 16 18.6642 16 18.25V14.25C16 13.8358 16.3358 13.5 16.75 13.5Z" fill="#002B51"/>
</svg>
